public/icons/ftwitter.svg

<svg width="21" height="17" viewBox="0 0 21 17" fill="none" xmlns="http://www.w3.org/2000/svg">
<path d="M20.9119 2.01651C20.1428 2.35727 19.3167 2.58752 18.4482 2.69159C19.3443 2.15539 20.0148 1.31147 20.3344 0.317296C19.4925 0.81738 18.571 1.16939 17.6101 1.35801C16.9639 0.668066 16.1081 0.210762 15.1753 0.057094C14.2426 -0.0965741 13.2853 0.0619913 12.4519 0.508172C11.6186 0.954353 10.9558 1.66319 10.5666 2.52462C10.1774 3.38606 10.0834 4.35189 10.2994 5.27219C8.59341 5.18653 6.92453 4.74313 5.40104 3.97075C3.87754 3.19837 2.53348 2.11428 1.45607 0.78884C1.08768 1.42432 0.875855 2.16111 0.875855 2.94578C0.875444 3.65217 1.0494 4.34774 1.38228 4.97078C1.71517 5.59382 2.19669 6.12505 2.78413 6.51736C2.10286 6.49568 1.43662 6.31159 0.840858 5.98042V6.03568C0.840789 7.02642 1.18349 7.98667 1.81082 8.7535C2.43815 9.52033 3.31146 10.0465 4.28257 10.2427C3.65058 10.4138 2.98798 10.439 2.34482 10.3164C2.61881 11.1689 3.15252 11.9143 3.87123 12.4484C4.58994 12.9825 5.45767 13.2785 6.35295 13.2949C4.83317 14.4879 2.95625 15.1351 1.02413 15.1322C0.681879 15.1323 0.339913 15.1123 0 15.0724C1.96121 16.3334 4.24421 17.0026 6.57582 17C14.4687 17 18.7835 10.4629 18.7835 4.79328C18.7835 4.60908 18.7789 4.42304 18.7706 4.23884C19.6099 3.63189 20.3343 2.8803 20.91 2.01927L20.9119 2.01651Z" fill="white"/>
</svg>

<svg width="21" height="17" fill="none" xmlns="http://www.w3.org/2000/svg"><path d="M20.912 2.017c-.77.34-1.595.57-2.464.675A4.3 4.3 0 0 0 20.334.317c-.841.5-1.763.852-2.724 1.041a4.292 4.292 0 0 0-7.31 3.914A12.184 12.184 0 0 1 1.455.79a4.292 4.292 0 0 0 1.328 5.729A4.28 4.28 0 0 1 .841 5.98v.056a4.292 4.292 0 0 0 3.442 4.207 4.32 4.32 0 0 1-1.938.073 4.293 4.293 0 0 0 4.008 2.979 8.61 8.61 0 0 1-5.329 1.837c-.342 0-.684-.02-1.024-.06A12.134 12.134 0 0 0 6.576 17c7.893 0 12.207-6.537 12.207-12.207 0-.184-.004-.37-.012-.554a8.721 8.721 0 0 0 2.139-2.22l.002-.002z" fill="#fff"/></svg>
